**harm	**harte	**timestamp	**phrase	**leadinstrument	**kern
*M4/4	*M4/4	*	*	*	*
*C:	*C:	*	*	*	*C:
1r;	N	0	.	r	1r;
=1	=1	=1	=1	=1	=1
*>A_intro	*>A_intro	*>A_intro	*>A_intro	*>A_intro	*>A_intro
1Im7	C:7(#9)	1.179	newline	guitar	1C 1e 1g 1b
=2	=2	=2	=2	=2	=2
1Im7	C:7(#9)	2.47	.	guitar	1C 1e 1g 1b
=3	=3	=3	=3	=3	=3
1I	C:maj	3.762	newline	piano	1C 1e 1g
=4	=4	=4	=4	=4	=4
1I	C:maj	5.072	.	piano	1C 1e 1g
=5	=5	=5	=5	=5	=5
1I	C:maj	6.381	.	piano	1C 1e 1g
=6	=6	=6	=6	=6	=6
1I	C:maj	7.691	.	piano	1C 1e 1g
=7	=7	=7	=7	=7	=7
1I	C:maj	9	newline	piano	1C 1e 1g
=8	=8	=8	=8	=8	=8
1I	C:maj	10.336	.	piano	1C 1e 1g
=9	=9	=9	=9	=9	=9
1I	C:maj	11.671	.	piano	1C 1e 1g
=10	=10	=10	=10	=10	=10
1I	C:maj	13.007	.	piano	1C 1e 1g
=11	=11	=11	=11	=11	=11
*>B_verse	*>B_verse	*>B_verse	*>B_verse	*>B_verse	*>B_verse
1I	C:maj	14.342	newline	voice	1C 1e 1g
=12	=12	=12	=12	=12	=12
1I	C:maj	15.679	.	voice	1C 1e 1g
=13	=13	=13	=13	=13	=13
1IV	F:maj	17.015	.	voice	1F 1a 1cc
=14	=14	=14	=14	=14	=14
1IV	F:maj	18.352	.	voice	1F 1a 1cc
=15	=15	=15	=15	=15	=15
1-VII	B-:maj	19.688	.	voice	1B- 1dd 1ff
=16	=16	=16	=16	=16	=16
1IV	F:maj	21.025	.	voice	1F 1a 1cc
=17	=17	=17	=17	=17	=17
1I	C:maj	22.361	.	voice	1C 1e 1g
=18	=18	=18	=18	=18	=18
1I	C:maj	23.698	.	voice	1C 1e 1g
=19	=19	=19	=19	=19	=19
1I	C:maj	25.034	newline	voice	1C 1e 1g
=20	=20	=20	=20	=20	=20
1I	C:maj	26.379	.	voice	1C 1e 1g
=21	=21	=21	=21	=21	=21
1IV	F:maj	27.724	.	voice	1F 1a 1cc
=22	=22	=22	=22	=22	=22
1IV	F:maj	29.069	.	voice	1F 1a 1cc
=23	=23	=23	=23	=23	=23
1III	E:maj	30.414	.	voice	1E 1g# 1b
=24	=24	=24	=24	=24	=24
2IV	F:maj	31.758	.	voice	2F 2a 2cc
2V	G:maj	32.431	.	voice	2G 2b 2dd
=25	=25	=25	=25	=25	=25
1I	C:maj	33.103	.	voice	1C 1e 1g
=26	=26	=26	=26	=26	=26
1I	C:maj	34.448	.	voice	1C 1e 1g
=27	=27	=27	=27	=27	=27
2-VI	A-:maj	35.793	newline	voice	2A- 2cc 2ee-
2-III	E-:maj	36.477	.	voice	2E- 2g 2b-
=28	=28	=28	=28	=28	=28
*M2/4	*M2/4	*M2/4	*M2/4	*M2/4	*M2/4
2-VII	B-:maj	37.161	.	voice	2B- 2dd 2ff
=29	=29	=29	=29	=29	=29
*M4/4	*M4/4	*M4/4	*M4/4	*M4/4	*M4/4
1I	C:maj	37.845	.	voice	1C 1e 1g
=30	=30	=30	=30	=30	=30
1I	C:maj	39.213	.	voice	1C 1e 1g
=31	=31	=31	=31	=31	=31
2-VI	A-:maj	40.581	newline	voice	2A- 2cc 2ee-
2-III	E-:maj	41.259	.	voice	2E- 2g 2b-
=32	=32	=32	=32	=32	=32
*M2/4	*M2/4	*M2/4	*M2/4	*M2/4	*M2/4
2-VII	B-:maj	41.937	.	voice	2B- 2dd 2ff
=33	=33	=33	=33	=33	=33
*M4/4	*M4/4	*M4/4	*M4/4	*M4/4	*M4/4
1I	C:maj	42.614	.	voice	1C 1e 1g
=34	=34	=34	=34	=34	=34
1I	C:maj	43.97	.	voice	1C 1e 1g
=35	=35	=35	=35	=35	=35
*>C_chorus	*>C_chorus	*>C_chorus	*>C_chorus	*>C_chorus	*>C_chorus
2IVc	F:maj/5	45.325	newline	voice	2f 2a 2C
2I	C:maj	46.016	.	voice	2C 2e 2g
=36	=36	=36	=36	=36	=36
2Vf	G:sus4/4	46.707	.	voice	2G 2b 2dd
2I	C:maj	47.399	.	voice	2C 2e 2g
=37	=37	=37	=37	=37	=37
2IVc	F:maj/5	48.09	.	voice	2f 2a 2C
2I	C:maj	48.781	.	voice	2C 2e 2g
=38	=38	=38	=38	=38	=38
2Vf	G:sus4/4	49.472	.	voice	2G 2b 2dd
2I	C:maj	50.163	.	voice	2C 2e 2g
=39	=39	=39	=39	=39	=39
1IV	F:maj	50.854	newline	voice	1F 1a 1cc
=40	=40	=40	=40	=40	=40
1I	C:maj	52.273	.	voice	1C 1e 1g
=41	=41	=41	=41	=41	=41
1IV	F:maj	53.693	.	voice	1F 1a 1cc
=42	=42	=42	=42	=42	=42
1-III	E-:maj	55.112	.	voice	1E- 1g 1b-
=43	=43	=43	=43	=43	=43
1-III	E-:maj	56.532	.	voice	1E- 1g 1b-
=44	=44	=44	=44	=44	=44
1V	G:maj	57.951	.	voice	1G 1b 1dd
=45	=45	=45	=45	=45	=45
1V	G:maj	59.371	.	voice	1G 1b 1dd
=46	=46	=46	=46	=46	=46
1IV	F:maj	60.79	newline	voice	1F 1a 1cc
=47	=47	=47	=47	=47	=47
1V	G:maj	62.233	.	voice	1G 1b 1dd
=48	=48	=48	=48	=48	=48
2I	C:maj	63.677	.	voice	2C 2e 2g
2V	G:maj	64.398	.	voice	2G 2b 2dd
=49	=49	=49	=49	=49	=49
1IV	F:maj	65.12	.	voice	1F 1a 1cc
=50	=50	=50	=50	=50	=50
1IV	F:maj	66.563	.	voice	1F 1a 1cc
=51	=51	=51	=51	=51	=51
1I	C:maj	68.007	.	voice	1C 1e 1g
=52	=52	=52	=52	=52	=52
1vi	A:min	69.45	.	voice	1A 1cc 1ee
=53	=53	=53	=53	=53	=53
2IV	F:maj	70.893	.	voice	2F 2a 2cc
2ii7	D:min7	71.615	.	voice	2D 2f 2a 2cc
=54	=54	=54	=54	=54	=54
1I	C:maj	72.337	.	voice	1C 1e 1g
=55	=55	=55	=55	=55	=55
1I	C:maj	73.78	.	voice	1C 1e 1g
=56	=56	=56	=56	=56	=56
*>B_verse	*>B_verse	*>B_verse	*>B_verse	*>B_verse	*>B_verse
2IV	F:maj	75.223	newline	voice	2F 2a 2cc
2V	G:maj	75.911	.	voice	2G 2b 2dd
=57	=57	=57	=57	=57	=57
1I	C:maj	76.599	.	voice	1C 1e 1g
=58	=58	=58	=58	=58	=58
1IV	F:maj	77.975	.	voice	1F 1a 1cc
=59	=59	=59	=59	=59	=59
1IV	F:maj	79.351	.	voice	1F 1a 1cc
=60	=60	=60	=60	=60	=60
1ii	D:min	80.727	.	voice	1D 1f 1a
=61	=61	=61	=61	=61	=61
1ii	D:min	82.104	.	voice	1D 1f 1a
=62	=62	=62	=62	=62	=62
1I	C:maj	83.48	.	voice	1C 1e 1g
=63	=63	=63	=63	=63	=63
1I	C:maj	84.856	.	voice	1C 1e 1g
=64	=64	=64	=64	=64	=64
2IV	F:maj	86.232	newline	voice	2F 2a 2cc
2V	G:maj	86.917	.	voice	2G 2b 2dd
=65	=65	=65	=65	=65	=65
1I	C:maj	87.602	.	voice	1C 1e 1g
=66	=66	=66	=66	=66	=66
2IV	F:maj	88.972	.	voice	2F 2a 2cc
2V	G:maj	89.657	.	voice	2G 2b 2dd
=67	=67	=67	=67	=67	=67
1I	C:maj	90.342	.	voice	1C 1e 1g
=68	=68	=68	=68	=68	=68
2IV	F:maj	91.712	.	voice	2F 2a 2cc
2V	G:maj	92.397	.	voice	2G 2b 2dd
=69	=69	=69	=69	=69	=69
1I	C:maj	93.083	.	voice	1C 1e 1g
=70	=70	=70	=70	=70	=70
1IV	F:maj	94.453	.	voice	1F 1a 1cc
=71	=71	=71	=71	=71	=71
1IV	F:maj	95.823	.	voice	1F 1a 1cc
=72	=72	=72	=72	=72	=72
1ii	D:min	97.193	.	voice	1D 1f 1a
=73	=73	=73	=73	=73	=73
1ii	D:min	98.563	.	voice	1D 1f 1a
=74	=74	=74	=74	=74	=74
1I	C:maj	99.933	.	voice	1C 1e 1g
=75	=75	=75	=75	=75	=75
1I	C:maj	101.303	.	voice	1C 1e 1g
=76	=76	=76	=76	=76	=76
1I	C:maj	102.674	.	voice	1C 1e 1g
=77	=77	=77	=77	=77	=77
1I	C:maj	104.044	.	voice	1C 1e 1g
=78	=78	=78	=78	=78	=78
1I	C:maj	105.414	newline	voice	1C 1e 1g
=79	=79	=79	=79	=79	=79
1I	C:maj	106.778	.	voice	1C 1e 1g
=80	=80	=80	=80	=80	=80
1IV	F:maj	108.142	.	voice	1F 1a 1cc
=81	=81	=81	=81	=81	=81
1IV	F:maj	109.506	.	voice	1F 1a 1cc
=82	=82	=82	=82	=82	=82
1-VII	B-:maj	110.87	.	voice	1B- 1dd 1ff
=83	=83	=83	=83	=83	=83
1IV	F:maj	112.234	.	voice	1F 1a 1cc
=84	=84	=84	=84	=84	=84
1I	C:maj	113.598	.	voice	1C 1e 1g
=85	=85	=85	=85	=85	=85
1I	C:maj	114.962	.	voice	1C 1e 1g
=86	=86	=86	=86	=86	=86
1I	C:maj	116.326	newline	voice	1C 1e 1g
=87	=87	=87	=87	=87	=87
1I	C:maj	117.692	.	voice	1C 1e 1g
=88	=88	=88	=88	=88	=88
1IV	F:maj	119.057	.	voice	1F 1a 1cc
=89	=89	=89	=89	=89	=89
1IV	F:maj	120.422	.	voice	1F 1a 1cc
=90	=90	=90	=90	=90	=90
1III	E:maj	121.788	.	voice	1E 1g# 1b
=91	=91	=91	=91	=91	=91
1IV	F:maj	123.153	.	voice	1F 1a 1cc
=92	=92	=92	=92	=92	=92
1II	D:maj	124.518	.	voice	1D 1f# 1a
=93	=93	=93	=93	=93	=93
1V	G:maj	125.883	.	voice	1G 1b 1dd
=94	=94	=94	=94	=94	=94
1I	C:maj	127.249	.	voice	1C 1e 1g
=95	=95	=95	=95	=95	=95
1I	C:maj	128.614	.	voice	1C 1e 1g
=96	=96	=96	=96	=96	=96
2-VI	A-:maj	129.979	newline	voice	2A- 2cc 2ee-
2-III	E-:maj	130.668	.	voice	2E- 2g 2b-
=97	=97	=97	=97	=97	=97
*M2/4	*M2/4	*M2/4	*M2/4	*M2/4	*M2/4
2-VII	B-:maj	131.356	.	voice	2B- 2dd 2ff
=98	=98	=98	=98	=98	=98
*M4/4	*M4/4	*M4/4	*M4/4	*M4/4	*M4/4
1I	C:maj	132.045	.	voice	1C 1e 1g
=99	=99	=99	=99	=99	=99
1I	C:maj	133.421	.	voice	1C 1e 1g
=100	=100	=100	=100	=100	=100
2-VI	A-:maj	134.798	newline	voice	2A- 2cc 2ee-
2-III	E-:maj	135.485	.	voice	2E- 2g 2b-
=101	=101	=101	=101	=101	=101
*M2/4	*M2/4	*M2/4	*M2/4	*M2/4	*M2/4
2-VII	B-:maj	136.172	.	voice	2B- 2dd 2ff
=102	=102	=102	=102	=102	=102
*M4/4	*M4/4	*M4/4	*M4/4	*M4/4	*M4/4
1I	C:maj	136.859	.	voice	1C 1e 1g
=103	=103	=103	=103	=103	=103
1I	C:maj	138.233	.	voice	1C 1e 1g
=104	=104	=104	=104	=104	=104
*>C_chorus	*>C_chorus	*>C_chorus	*>C_chorus	*>C_chorus	*>C_chorus
2IVc	F:maj/5	139.607	newline	voice	2f 2a 2C
2I	C:maj	140.306	.	voice	2C 2e 2g
=105	=105	=105	=105	=105	=105
2Vf	G:sus4/4	141.005	.	voice	2G 2b 2dd
2I	C:maj	141.705	.	voice	2C 2e 2g
=106	=106	=106	=106	=106	=106
2IVc	F:maj/5	142.404	.	voice	2f 2a 2C
2I	C:maj	143.103	.	voice	2C 2e 2g
=107	=107	=107	=107	=107	=107
2Vf	G:sus4/4	143.802	.	voice	2G 2b 2dd
2I	C:maj	144.502	.	voice	2C 2e 2g
=108	=108	=108	=108	=108	=108
1IV	F:maj	145.201	newline	voice	1F 1a 1cc
=109	=109	=109	=109	=109	=109
1I	C:maj	146.608	.	voice	1C 1e 1g
=110	=110	=110	=110	=110	=110
1IV	F:maj	148.016	.	voice	1F 1a 1cc
=111	=111	=111	=111	=111	=111
1-III	E-:maj	149.423	.	voice	1E- 1g 1b-
=112	=112	=112	=112	=112	=112
1-III	E-:maj	150.831	.	voice	1E- 1g 1b-
=113	=113	=113	=113	=113	=113
1V	G:maj	152.238	.	voice	1G 1b 1dd
=114	=114	=114	=114	=114	=114
1V	G:maj	153.646	.	voice	1G 1b 1dd
=115	=115	=115	=115	=115	=115
1IV	F:maj	155.054	newline	voice	1F 1a 1cc
=116	=116	=116	=116	=116	=116
1V	G:maj	156.515	.	voice	1G 1b 1dd
=117	=117	=117	=117	=117	=117
2I	C:maj	157.977	.	voice	2C 2e 2g
2V	G:maj	158.707	.	voice	2G 2b 2dd
=118	=118	=118	=118	=118	=118
1IV	F:maj	159.438	.	voice	1F 1a 1cc
=119	=119	=119	=119	=119	=119
1IV	F:maj	160.9	.	voice	1F 1a 1cc
=120	=120	=120	=120	=120	=120
1IV	F:maj	162.361	.	voice	1F 1a 1cc
=121	=121	=121	=121	=121	=121
1I	C:maj	163.823	.	voice	1C 1e 1g
=122	=122	=122	=122	=122	=122
1III7	E:7	165.284	.	voice	1E 1g# 1b 1dd
=123	=123	=123	=123	=123	=123
1IV	F:maj	166.746	.	voice	1F 1a 1cc
=124	=124	=124	=124	=124	=124
1IV	F:maj	168.207	.	voice	1F 1a 1cc
=125	=125	=125	=125	=125	=125
1ii	D:min	169.669	.	voice	1D 1f 1a
=126	=126	=126	=126	=126	=126
1I	C:maj	171.13	.	voice	1C 1e 1g
=127	=127	=127	=127	=127	=127
1vi	A:min	172.592	.	voice	1A 1cc 1ee
=128	=128	=128	=128	=128	=128
1V	G:maj	174.053	.	voice	1G 1b 1dd
=129	=129	=129	=129	=129	=129
1iii	E:min	175.515	.	voice	1E 1g 1b
=130	=130	=130	=130	=130	=130
1III7b	E:7/3	176.976	.	voice	1e 1G# 1b 1dd
=131	=131	=131	=131	=131	=131
1III7	E:7	178.438	.	voice	1E 1g# 1b 1dd
=132	=132	=132	=132	=132	=132
1IV	F:maj	179.899	newline	voice	1F 1a 1cc
=133	=133	=133	=133	=133	=133
1I	C:maj	182.126	.	voice	1C 1e 1g
=134	=134	=134	=134	=134	=134
2Ic	C:maj/5	184.353	.	voice	2c 2e 2G
2V7	G:7	185.466	.	voice	2G 2b 2dd 2ff
=135	=135	=135	=135	=135	=135
1I	C:maj	186.58	.	voice	1C 1e 1g
=136	=136	=136	=136	=136	=136
1I	C:maj	188.807	.	voice	1C 1e 1g
=137	=137	=137	=137	=137	=137
*>B_verse	*>B_verse	*>B_verse	*>B_verse	*>B_verse	*>B_verse
2IV	F:maj	191.033	newline	voice	2F 2a 2cc
2V	G:maj	191.738	.	voice	2G 2b 2dd
=138	=138	=138	=138	=138	=138
1I	C:maj	192.443	.	voice	1C 1e 1g
=139	=139	=139	=139	=139	=139
2IV	F:maj	193.853	.	voice	2F 2a 2cc
2V	G:maj	194.558	.	voice	2G 2b 2dd
=140	=140	=140	=140	=140	=140
1I	C:maj	195.263	.	voice	1C 1e 1g
=141	=141	=141	=141	=141	=141
2IV	F:maj	196.673	.	voice	2F 2a 2cc
2V	G:maj	197.378	.	voice	2G 2b 2dd
=142	=142	=142	=142	=142	=142
1I	C:maj	198.083	.	voice	1C 1e 1g
=143	=143	=143	=143	=143	=143
1IV	F:maj	199.493	.	voice	1F 1a 1cc
=144	=144	=144	=144	=144	=144
1IV	F:maj	200.903	.	voice	1F 1a 1cc
=145	=145	=145	=145	=145	=145
1ii	D:min	202.313	.	voice	1D 1f 1a
=146	=146	=146	=146	=146	=146
1ii	D:min	203.723	.	voice	1D 1f 1a
=147	=147	=147	=147	=147	=147
*>D_interlude	*>D_interlude	*>D_interlude	*>D_interlude	*>D_interlude	*>D_interlude
1V	G:maj	205.133	newline	voice	1G 1b 1dd
=148	=148	=148	=148	=148	=148
1V	G:maj	207.013	.	voice	1G 1b 1dd
=149	=149	=149	=149	=149	=149
1V	G:maj	208.894	.	voice	1G 1b 1dd
=150	=150	=150	=150	=150	=150
1V	G:maj	210.775	.	voice	1G 1b 1dd
=151	=151	=151	=151	=151	=151
1V	G:maj	212.655	newline	voice	1G 1b 1dd
=152	=152	=152	=152	=152	=152
1V	G:maj	214.514	.	voice	1G 1b 1dd
=153	=153	=153	=153	=153	=153
1V	G:maj	216.373	.	voice	1G 1b 1dd
=154	=154	=154	=154	=154	=154
1V	G:maj	218.232	.	voice	1G 1b 1dd
=155	=155	=155	=155	=155	=155
2ii7	D:min7	220.091	newline	voice	2D 2f 2a 2cc
2iig	D:min/6	220.993	.	voice	2D 2f 2a
=156	=156	=156	=156	=156	=156
1ii7	D:min7	221.894	.	voice	1D 1f 1a 1cc
=157	=157	=157	=157	=157	=157
2ii7	D:min7	223.698	.	voice	2D 2f 2a 2cc
2iig	D:min/6	224.6	.	voice	2D 2f 2a
=158	=158	=158	=158	=158	=158
1ii7	D:min7	225.501	.	voice	1D 1f 1a 1cc
=159	=159	=159	=159	=159	=159
2ii7	D:min7	227.305	newline	voice	2D 2f 2a 2cc
2iig	D:min/6	228.192	.	voice	2D 2f 2a
=160	=160	=160	=160	=160	=160
1ii7	D:min7	229.08	.	voice	1D 1f 1a 1cc
=161	=161	=161	=161	=161	=161
2ii7	D:min7	230.854	.	voice	2D 2f 2a 2cc
2iig	D:min/6	231.741	.	voice	2D 2f 2a
=162	=162	=162	=162	=162	=162
1ii7	D:min7	232.629	.	voice	1D 1f 1a 1cc
=163	=163	=163	=163	=163	=163
2ii7	D:min7	234.403	newline	voice	2D 2f 2a 2cc
2iig	D:min/6	235.29	.	voice	2D 2f 2a
=164	=164	=164	=164	=164	=164
1ii7	D:min7	236.176	.	voice	1D 1f 1a 1cc
=165	=165	=165	=165	=165	=165
2ii7	D:min7	237.949	.	voice	2D 2f 2a 2cc
2iig	D:min/6	238.835	.	voice	2D 2f 2a
=166	=166	=166	=166	=166	=166
1ii7	D:min7	239.722	.	voice	1D 1f 1a 1cc
=167	=167	=167	=167	=167	=167
2ii7	D:min7	241.495	newline	voice	2D 2f 2a 2cc
2iig	D:min/6	242.376	.	voice	2D 2f 2a
=168	=168	=168	=168	=168	=168
1ii7	D:min7	243.257	.	voice	1D 1f 1a 1cc
=169	=169	=169	=169	=169	=169
2ii7	D:min7	245.02	.	voice	2D 2f 2a 2cc
2iig	D:min/6	245.902	.	voice	2D 2f 2a
=170	=170	=170	=170	=170	=170
1ii7	D:min7	246.783	.	voice	1D 1f 1a 1cc
=171	=171	=171	=171	=171	=171
2ii7	D:min7	248.546	newline	voice	2D 2f 2a 2cc
2iig	D:min/6	249.437	.	voice	2D 2f 2a
=172	=172	=172	=172	=172	=172
1ii7	D:min7	250.328	.	voice	1D 1f 1a 1cc
=173	=173	=173	=173	=173	=173
2ii7	D:min7	252.111	.	voice	2D 2f 2a 2cc
2iig	D:min/6	253.002	.	voice	2D 2f 2a
=174	=174	=174	=174	=174	=174
1ii7	D:min7	253.893	.	voice	1D 1f 1a 1cc
=175	=175	=175	=175	=175	=175
2ii7	D:min7	255.676	newline	voice	2D 2f 2a 2cc
2iig	D:min/6	256.562	.	voice	2D 2f 2a
=176	=176	=176	=176	=176	=176
1ii7	D:min7	257.448	.	voice	1D 1f 1a 1cc
=177	=177	=177	=177	=177	=177
2ii7	D:min7	259.22	.	voice	2D 2f 2a 2cc
2iig	D:min/6	260.107	.	voice	2D 2f 2a
=178	=178	=178	=178	=178	=178
1ii7	D:min7	260.993	.	voice	1D 1f 1a 1cc
=179	=179	=179	=179	=179	=179
2ii7	D:min7	262.765	newline	voice	2D 2f 2a 2cc
2iig	D:min/6	263.644	.	voice	2D 2f 2a
=180	=180	=180	=180	=180	=180
1ii7	D:min7	264.522	.	voice	1D 1f 1a 1cc
=181	=181	=181	=181	=181	=181
2ii7	D:min7	266.28	.	voice	2D 2f 2a 2cc
2iig	D:min/6	267.159	.	voice	2D 2f 2a
=182	=182	=182	=182	=182	=182
1ii7	D:min7	268.038	.	voice	1D 1f 1a 1cc
=183	=183	=183	=183	=183	=183
2ii7	D:min7	269.795	newline	voice	2D 2f 2a 2cc
2iig	D:min/6	270.711	.	voice	2D 2f 2a
=184	=184	=184	=184	=184	=184
1ii7	D:min7	271.626	.	voice	1D 1f 1a 1cc
=185	=185	=185	=185	=185	=185
1ii7	D:min7	273.457	.	voice	1D 1f 1a 1cc
=186	=186	=186	=186	=186	=186
1ii7	D:min7	275.288	.	voice	1D 1f 1a 1cc
=187	=187	=187	=187	=187	=187
1II7	D:7(#9)	277.119	newline	voice	1D 1f# 1a 1cc
=188	=188	=188	=188	=188	=188
1II7	D:7(#9)	278.987	.	voice	1D 1f# 1a 1cc
=189	=189	=189	=189	=189	=189
1ii7	D:min7	280.855	.	voice	1D 1f 1a 1cc
=190	=190	=190	=190	=190	=190
1ii7	D:min7	282.724	.	voice	1D 1f 1a 1cc
=191	=191	=191	=191	=191	=191
*>E_verse	*>E_verse	*>E_verse	*>E_verse	*>E_verse	*>E_verse
1V	G:maj	284.592	newline	voice	1G 1b 1dd
=192	=192	=192	=192	=192	=192
4V	G:maj	286.276	.	voice	4G 4b 4dd
2IV	F:maj	286.696	.	voice	2F 2a 2cc
4I	C:maj	287.538	.	voice	4C 4e 4g
=193	=193	=193	=193	=193	=193
1V	G:maj	287.959	.	voice	1G 1b 1dd
=194	=194	=194	=194	=194	=194
1V	G:5	289.642	newline	voice	1G 1b 1dd
=195	=195	=195	=195	=195	=195
1V	G:5	291.145	.	voice	1G 1b 1dd
=196	=196	=196	=196	=196	=196
1IV	F:5	292.648	.	voice	1F 1a 1cc
=197	=197	=197	=197	=197	=197
1IV	F:5	294.151	.	voice	1F 1a 1cc
=198	=198	=198	=198	=198	=198
1I	C:5	295.654	.	voice	1C 1e 1g
=199	=199	=199	=199	=199	=199
1I	C:5	297.157	.	voice	1C 1e 1g
=200	=200	=200	=200	=200	=200
1-VII	B-:5	298.66	.	voice	1B- 1dd 1ff
=201	=201	=201	=201	=201	=201
1IV	F:5	300.163	.	voice	1F 1a 1cc
=202	=202	=202	=202	=202	=202
1V	G:maj	301.666	.	voice	1G 1b 1dd
=203	=203	=203	=203	=203	=203
1V	G:maj	303.169	.	voice	1G 1b 1dd
=204	=204	=204	=204	=204	=204
1IV	F:maj	304.672	newline	voice	1F 1a 1cc
=205	=205	=205	=205	=205	=205
1IV	F:maj	306.11	.	voice	1F 1a 1cc
=206	=206	=206	=206	=206	=206
1I	C:maj	307.547	.	voice	1C 1e 1g
=207	=207	=207	=207	=207	=207
1I	C:maj	308.985	.	voice	1C 1e 1g
=208	=208	=208	=208	=208	=208
1IV	F:maj	310.422	.	voice	1F 1a 1cc
=209	=209	=209	=209	=209	=209
1I	C:maj	311.86	.	voice	1C 1e 1g
=210	=210	=210	=210	=210	=210
1V	G:maj	313.297	.	voice	1G 1b 1dd
=211	=211	=211	=211	=211	=211
1V	G:maj	314.735	.	voice	1G 1b 1dd
=212	=212	=212	=212	=212	=212
1IV	F:maj	316.172	newline	voice	1F 1a 1cc
=213	=213	=213	=213	=213	=213
1IV	F:maj	317.646	.	voice	1F 1a 1cc
=214	=214	=214	=214	=214	=214
1V	G:maj	319.119	.	voice	1G 1b 1dd
=215	=215	=215	=215	=215	=215
1IV	F:maj	320.592	.	voice	1F 1a 1cc
=216	=216	=216	=216	=216	=216
1I	C:maj	322.066	.	voice	1C 1e 1g
=217	=217	=217	=217	=217	=217
1V	G:maj	323.539	.	voice	1G 1b 1dd
=218	=218	=218	=218	=218	=218
1V	G:maj	325.013	.	voice	1G 1b 1dd
=219	=219	=219	=219	=219	=219
*>F_verse	*>F_verse	*>F_verse	*>F_verse	*>F_verse	*>F_verse
1IV	F:maj	326.486	newline	voice	1F 1a 1cc
=220	=220	=220	=220	=220	=220
1IV	F:maj	327.962	.	voice	1F 1a 1cc
=221	=221	=221	=221	=221	=221
1I	C:maj	329.438	.	voice	1C 1e 1g
=222	=222	=222	=222	=222	=222
1I	C:maj	330.914	.	voice	1C 1e 1g
=223	=223	=223	=223	=223	=223
1-VII	B-:maj	332.39	.	voice	1B- 1dd 1ff
=224	=224	=224	=224	=224	=224
1IV	F:maj	333.866	.	voice	1F 1a 1cc
=225	=225	=225	=225	=225	=225
1I	C:maj	335.342	.	voice	1C 1e 1g
=226	=226	=226	=226	=226	=226
1I	C:maj	336.818	.	voice	1C 1e 1g
=227	=227	=227	=227	=227	=227
1IV	F:maj	338.294	newline	voice	1F 1a 1cc
=228	=228	=228	=228	=228	=228
1IV	F:maj	339.75	.	voice	1F 1a 1cc
=229	=229	=229	=229	=229	=229
1I	C:maj	341.207	.	voice	1C 1e 1g
=230	=230	=230	=230	=230	=230
1I	C:maj	342.663	.	voice	1C 1e 1g
=231	=231	=231	=231	=231	=231
1-VII	B-:maj	344.119	.	voice	1B- 1dd 1ff
=232	=232	=232	=232	=232	=232
1IV	F:maj	345.575	.	voice	1F 1a 1cc
=233	=233	=233	=233	=233	=233
1I	C:maj	347.031	.	voice	1C 1e 1g
=234	=234	=234	=234	=234	=234
1I	C:maj	348.487	.	voice	1C 1e 1g
=235	=235	=235	=235	=235	=235
1IV	F:maj	349.943	newline	voice	1F 1a 1cc
=236	=236	=236	=236	=236	=236
1IV	F:maj	351.397	.	voice	1F 1a 1cc
=237	=237	=237	=237	=237	=237
1V	G:maj	352.851	.	voice	1G 1b 1dd
=238	=238	=238	=238	=238	=238
1V	G:maj	354.305	.	voice	1G 1b 1dd
=239	=239	=239	=239	=239	=239
1-VII	B-:maj	355.76	.	voice	1B- 1dd 1ff
=240	=240	=240	=240	=240	=240
1I	C:maj	357.214	.	voice	1C 1e 1g
=241	=241	=241	=241	=241	=241
2-VII	B-:maj	358.668	.	voice	2B- 2dd 2ff
4IVb	F:maj/3	359.395	.	voice	4f 4A 4cc
4v	G:min	359.758	.	voice	4G 4b- 4dd
=242	=242	=242	=242	=242	=242
2IV	F:maj	360.122	.	voice	2F 2a 2cc
4Ib	C:maj/3	360.849	.	voice	4c 4E 4g
4-VIIb	B-:maj/3	361.213	.	voice	4b- 4D 4ff
=243	=243	=243	=243	=243	=243
1I	C:maj	361.576	.	voice	1C 1e 1g
=244	=244	=244	=244	=244	=244
1I	C:maj	363.03	.	voice	1C 1e 1g
=245	=245	=245	=245	=245	=245
1IV	F:maj	364.484	newline	voice	1F 1a 1cc
=246	=246	=246	=246	=246	=246
1IV	F:maj	365.899	.	voice	1F 1a 1cc
=247	=247	=247	=247	=247	=247
1I	C:maj	367.314	.	voice	1C 1e 1g
=248	=248	=248	=248	=248	=248
1I	C:maj	368.729	.	voice	1C 1e 1g
=249	=249	=249	=249	=249	=249
1-VII	B-:maj	370.144	.	voice	1B- 1dd 1ff
=250	=250	=250	=250	=250	=250
1IV	F:maj	371.559	.	voice	1F 1a 1cc
=251	=251	=251	=251	=251	=251
1V	G:maj	372.974	.	voice	1G 1b 1dd
=252	=252	=252	=252	=252	=252
1V	G:maj	374.389	.	voice	1G 1b 1dd
=253	=253	=253	=253	=253	=253
1IV	F:maj	375.804	newline	voice	1F 1a 1cc
=254	=254	=254	=254	=254	=254
1IV	F:maj	377.266	.	voice	1F 1a 1cc
=255	=255	=255	=255	=255	=255
1V	G:maj	378.728	.	voice	1G 1b 1dd
=256	=256	=256	=256	=256	=256
1IV	F:maj	380.189	.	voice	1F 1a 1cc
=257	=257	=257	=257	=257	=257
1I	C:maj	381.651	.	voice	1C 1e 1g
=258	=258	=258	=258	=258	=258
1V	G:maj	383.113	.	voice	1G 1b 1dd
=259	=259	=259	=259	=259	=259
1V	G:maj	384.575	.	voice	1G 1b 1dd
=260	=260	=260	=260	=260	=260
1V	G:maj	386.037	.	voice	1G 1b 1dd
=261	=261	=261	=261	=261	=261
1V	G:maj	387.499	.	voice	1G 1b 1dd
=262	=262	=262	=262	=262	=262
1V	G:maj	388.961	.	voice	1G 1b 1dd
=263	=263	=263	=263	=263	=263
1V	G:maj	390.423	.	voice	1G 1b 1dd
=264	=264	=264	=264	=264	=264
1V	G:maj	391.884	.	voice	1G 1b 1dd
=265	=265	=265	=265	=265	=265
1V	G:maj	393.346	.	voice	1G 1b 1dd
=266	=266	=266	=266	=266	=266
1V	G:maj	394.808	.	voice	1G 1b 1dd
=267	=267	=267	=267	=267	=267
1V	G:maj	396.27	.	voice	1G 1b 1dd
=268	=268	=268	=268	=268	=268
1V	G:maj	397.732	.	voice	1G 1b 1dd
=269	=269	=269	=269	=269	=269
1IV	F:maj	399.194	newline	voice	1F 1a 1cc
=270	=270	=270	=270	=270	=270
1IV	F:maj	400.647	.	voice	1F 1a 1cc
=271	=271	=271	=271	=271	=271
1I	C:maj	402.101	.	voice	1C 1e 1g
=272	=272	=272	=272	=272	=272
1I	C:maj	403.554	.	voice	1C 1e 1g
=273	=273	=273	=273	=273	=273
1-VII	B-:maj	405.007	.	voice	1B- 1dd 1ff
=274	=274	=274	=274	=274	=274
1IV	F:maj	406.461	.	voice	1F 1a 1cc
=275	=275	=275	=275	=275	=275
1I	C:maj	407.914	.	voice	1C 1e 1g
=276	=276	=276	=276	=276	=276
1I	C:maj	409.368	.	voice	1C 1e 1g
=277	=277	=277	=277	=277	=277
1IV	F:maj	410.821	newline	voice	1F 1a 1cc
=278	=278	=278	=278	=278	=278
1IV	F:maj	412.228	.	voice	1F 1a 1cc
=279	=279	=279	=279	=279	=279
1I	C:maj	413.635	.	voice	1C 1e 1g
=280	=280	=280	=280	=280	=280
1I	C:maj	415.042	.	voice	1C 1e 1g
=281	=281	=281	=281	=281	=281
1-VII	B-:maj	416.449	.	voice	1B- 1dd 1ff
=282	=282	=282	=282	=282	=282
1IV	F:maj	417.856	.	voice	1F 1a 1cc
=283	=283	=283	=283	=283	=283
1I	C:maj	419.263	.	voice	1C 1e 1g
=284	=284	=284	=284	=284	=284
1I	C:maj	420.67	.	voice	1C 1e 1g
=285	=285	=285	=285	=285	=285
1IV	F:maj	422.077	newline	voice	1F 1a 1cc
=286	=286	=286	=286	=286	=286
1IV	F:maj	423.524	.	voice	1F 1a 1cc
=287	=287	=287	=287	=287	=287
1V	G:maj	424.97	.	voice	1G 1b 1dd
=288	=288	=288	=288	=288	=288
1IV	F:maj	426.416	.	voice	1F 1a 1cc
=289	=289	=289	=289	=289	=289
1I	C:maj	427.863	.	voice	1C 1e 1g
=290	=290	=290	=290	=290	=290
1I	C:maj	429.309	.	voice	1C 1e 1g
=291	=291	=291	=291	=291	=291
1I	C:maj	430.755	.	voice	1C 1e 1g
=292	=292	=292	=292	=292	=292
1#I	C#:maj	432.202	.	voice	1C# 1e# 1g#
=293	=293	=293	=293	=293	=293
1#I	C#:maj	433.648	.	voice	1C# 1e# 1g#
=294	=294	=294	=294	=294	=294
1II	D:maj	435.094	.	voice	1D 1f# 1a
=295	=295	=295	=295	=295	=295
1II	D:maj	436.541	.	voice	1D 1f# 1a
=296	=296	=296	=296	=296	=296
*>G_keychange	*>G_keychange	*>G_keychange	*>G_keychange	*>G_keychange	*>G_keychange
*B-:	*B-:	*	*	*	*B-:
1IV	E-:maj	437.987	newline	voice	1E- 1g 1b-
=297	=297	=297	=297	=297	=297
1IV	E-:maj	439.388	.	voice	1E- 1g 1b-
=298	=298	=298	=298	=298	=298
1I	B-:maj	440.789	.	voice	1B- 1dd 1ff
=299	=299	=299	=299	=299	=299
1IV	E-:maj	442.19	.	voice	1E- 1g 1b-
=300	=300	=300	=300	=300	=300
1I	B-:maj	443.59	.	voice	1B- 1dd 1ff
=301	=301	=301	=301	=301	=301
1V	F:maj	444.991	.	voice	1F 1a 1cc
=302	=302	=302	=302	=302	=302
2IV	E-:maj	446.392	.	voice	2E- 2g 2b-
2V	F:maj	447.092	.	voice	2F 2a 2cc
=303	=303	=303	=303	=303	=303
1I	B-:maj	447.793	.	voice	1B- 1dd 1ff
=304	=304	=304	=304	=304	=304
2IV	E-:maj	449.193	.	voice	2E- 2g 2b-
2V	F:maj	449.894	.	voice	2F 2a 2cc
=305	=305	=305	=305	=305	=305
1I	B-:maj	450.594	.	voice	1B- 1dd 1ff
=306	=306	=306	=306	=306	=306
1V	F:maj	451.995	.	voice	1F 1a 1cc
=307	=307	=307	=307	=307	=307
1V	F:maj	453.396	.	voice	1F 1a 1cc
=308	=308	=308	=308	=308	=308
2I	B-:maj	454.796	newline	voice	2B- 2dd 2ff
2V	F:maj	455.488	.	voice	2F 2a 2cc
=309	=309	=309	=309	=309	=309
1I	B-:maj	456.18	.	voice	1B- 1dd 1ff
=310	=310	=310	=310	=310	=310
2IV	E-:maj	457.564	.	voice	2E- 2g 2b-
2V	F:maj	458.256	.	voice	2F 2a 2cc
=311	=311	=311	=311	=311	=311
1I	B-:maj	458.947	.	voice	1B- 1dd 1ff
=312	=312	=312	=312	=312	=312
2I	B-:maj	460.331	.	voice	2B- 2dd 2ff
2Vb	F:maj/3	461.023	.	voice	2f 2A 2cc
=313	=313	=313	=313	=313	=313
1vi	G:min	461.715	.	voice	1G 1b- 1dd
=314	=314	=314	=314	=314	=314
1V	F:maj	463.099	.	voice	1F 1a 1cc
=315	=315	=315	=315	=315	=315
1V	F:maj	464.482	.	voice	1F 1a 1cc
=316	=316	=316	=316	=316	=316
1IV	E-:maj	465.866	newline	voice	1E- 1g 1b-
=317	=317	=317	=317	=317	=317
1IV	E-:maj	467.28	.	voice	1E- 1g 1b-
=318	=318	=318	=318	=318	=318
1I	B-:maj	468.694	.	voice	1B- 1dd 1ff
=319	=319	=319	=319	=319	=319
1V	F:maj	470.108	.	voice	1F 1a 1cc
=320	=320	=320	=320	=320	=320
2I	B-:maj	471.523	newline	voice	2B- 2dd 2ff
2V	F:maj	472.22	.	voice	2F 2a 2cc
=321	=321	=321	=321	=321	=321
2.I	B-:maj	472.918	.	voice	2B- 2dd 2ff
4Vb	F:maj/3	473.964	.	voice	4f 4A 4cc
=322	=322	=322	=322	=322	=322
1vi	G:min	474.313	.	voice	1G 1b- 1dd
=323	=323	=323	=323	=323	=323
1vi	G:min	475.708	.	voice	1G 1b- 1dd
=324	=324	=324	=324	=324	=324
2I	B-:maj	477.103	.	voice	2B- 2dd 2ff
2V	F:maj	477.8	.	voice	2F 2a 2cc
=325	=325	=325	=325	=325	=325
1I	B-:maj	478.498	.	voice	1B- 1dd 1ff
=326	=326	=326	=326	=326	=326
1IV	E-:maj	479.893	.	voice	1E- 1g 1b-
=327	=327	=327	=327	=327	=327
1V	F:maj	481.288	.	voice	1F 1a 1cc
=328	=328	=328	=328	=328	=328
1I	B-:maj	482.683	.	voice	1B- 1dd 1ff
=329	=329	=329	=329	=329	=329
1I	B-:maj	484.078	.	voice	1B- 1dd 1ff
=330	=330	=330	=330	=330	=330
*>H_outro	*>H_outro	*>H_outro	*>H_outro	*>H_outro	*>H_outro
2IV	E-:maj	485.473	newline	voice	2E- 2g 2b-
2I	B-:maj	486.194	.	voice	2B- 2dd 2ff
=331	=331	=331	=331	=331	=331
2V	F:maj	486.916	.	voice	2F 2a 2cc
2I	B-:maj	487.638	.	voice	2B- 2dd 2ff
=332	=332	=332	=332	=332	=332
2IV	E-:maj	488.359	.	voice	2E- 2g 2b-
2I	B-:maj	489.081	.	voice	2B- 2dd 2ff
=333	=333	=333	=333	=333	=333
2V	F:maj	489.802	.	voice	2F 2a 2cc
2I	B-:maj	490.524	.	voice	2B- 2dd 2ff
=334	=334	=334	=334	=334	=334
2IV	E-:maj	491.245	newline	voice	2E- 2g 2b-
2I	B-:maj	491.963	.	voice	2B- 2dd 2ff
=335	=335	=335	=335	=335	=335
2V	F:maj	492.68	.	voice	2F 2a 2cc
2I	B-:maj	493.398	.	voice	2B- 2dd 2ff
=336	=336	=336	=336	=336	=336
2IV	E-:maj	494.115	.	voice	2E- 2g 2b-
2I	B-:maj	494.833	.	voice	2B- 2dd 2ff
=337	=337	=337	=337	=337	=337
2V	F:maj	495.55	.	voice	2F 2a 2cc
2I	B-:maj	496.268	.	voice	2B- 2dd 2ff
=338	=338	=338	=338	=338	=338
*>H_vocal	*>H_vocal	*>H_vocal	*>H_vocal	*>H_vocal	*>H_vocal
2IV	E-:maj	496.985	newline	voice	2E- 2g 2b-
2I	B-:maj	497.695	.	voice	2B- 2dd 2ff
=339	=339	=339	=339	=339	=339
2V	F:maj	498.406	.	voice	2F 2a 2cc
2I	B-:maj	499.116	.	voice	2B- 2dd 2ff
=340	=340	=340	=340	=340	=340
2IV	E-:maj	499.826	.	voice	2E- 2g 2b-
2I	B-:maj	500.536	.	voice	2B- 2dd 2ff
=341	=341	=341	=341	=341	=341
2V	F:maj	501.246	.	voice	2F 2a 2cc
2I	B-:maj	501.956	.	voice	2B- 2dd 2ff
=342	=342	=342	=342	=342	=342
2IV	E-:maj	502.667	newline	voice	2E- 2g 2b-
2I	B-:maj	503.385	.	voice	2B- 2dd 2ff
=343	=343	=343	=343	=343	=343
2V	F:maj	504.103	.	voice	2F 2a 2cc
2I	B-:maj	504.821	.	voice	2B- 2dd 2ff
=344	=344	=344	=344	=344	=344
2IV	E-:maj	505.539	.	voice	2E- 2g 2b-
2I	B-:maj	506.257	.	voice	2B- 2dd 2ff
=345	=345	=345	=345	=345	=345
2V	F:maj	506.975	.	voice	2F 2a 2cc
2I	B-:maj	507.693	.	voice	2B- 2dd 2ff
=346	=346	=346	=346	=346	=346
2IV	E-:maj	508.412	newline	voice	2E- 2g 2b-
2I	B-:maj	509.108	.	voice	2B- 2dd 2ff
=347	=347	=347	=347	=347	=347
2V	F:maj	509.805	.	voice	2F 2a 2cc
2I	B-:maj	510.502	.	voice	2B- 2dd 2ff
=348	=348	=348	=348	=348	=348
2IV	E-:maj	511.199	.	voice	2E- 2g 2b-
2I	B-:maj	511.895	.	voice	2B- 2dd 2ff
=349	=349	=349	=349	=349	=349
2V	F:maj	512.592	.	voice	2F 2a 2cc
2I	B-:maj	513.289	.	voice	2B- 2dd 2ff
=350	=350	=350	=350	=350	=350
2IV	E-:maj	513.986	newline	voice	2E- 2g 2b-
2I	B-:maj	514.688	.	voice	2B- 2dd 2ff
=351	=351	=351	=351	=351	=351
2V	F:maj	515.391	.	voice	2F 2a 2cc
2I	B-:maj	516.093	.	voice	2B- 2dd 2ff
=352	=352	=352	=352	=352	=352
2IV	E-:maj	516.796	.	voice	2E- 2g 2b-
2I	B-:maj	517.498	.	voice	2B- 2dd 2ff
=353	=353	=353	=353	=353	=353
2V	F:maj	518.201	.	voice	2F 2a 2cc
2I	B-:maj	518.903	.	voice	2B- 2dd 2ff
=354	=354	=354	=354	=354	=354
2IV	E-:maj	519.606	newline	voice	2E- 2g 2b-
2I	B-:maj	520.304	.	voice	2B- 2dd 2ff
=355	=355	=355	=355	=355	=355
2V	F:maj	521.003	.	voice	2F 2a 2cc
2I	B-:maj	521.702	.	voice	2B- 2dd 2ff
=356	=356	=356	=356	=356	=356
2IV	E-:maj	522.4	.	voice	2E- 2g 2b-
2I	B-:maj	523.099	.	voice	2B- 2dd 2ff
=357	=357	=357	=357	=357	=357
2V	F:maj	523.798	.	voice	2F 2a 2cc
2I	B-:maj	524.497	.	voice	2B- 2dd 2ff
=358	=358	=358	=358	=358	=358
2IV	E-:maj	525.195	newline	voice	2E- 2g 2b-
2I	B-:maj	525.892	.	voice	2B- 2dd 2ff
=359	=359	=359	=359	=359	=359
2V	F:maj	526.588	.	voice	2F 2a 2cc
2I	B-:maj	527.285	.	voice	2B- 2dd 2ff
=360	=360	=360	=360	=360	=360
2IV	E-:maj	527.981	.	voice	2E- 2g 2b-
2I	B-:maj	528.677	.	voice	2B- 2dd 2ff
=361	=361	=361	=361	=361	=361
2V	F:maj	529.374	.	voice	2F 2a 2cc
2I	B-:maj	530.07	.	voice	2B- 2dd 2ff
=362	=362	=362	=362	=362	=362
2IV	E-:maj	530.766	newline	voice	2E- 2g 2b-
2I	B-:maj	531.455	.	voice	2B- 2dd 2ff
=363	=363	=363	=363	=363	=363
2V	F:maj	532.144	.	voice	2F 2a 2cc
2I	B-:maj	532.833	.	voice	2B- 2dd 2ff
=364	=364	=364	=364	=364	=364
2IVc	E-:maj/5	533.522	newline	voice	2e- 2g 2B-
2I	B-:maj	534.213	.	voice	2B- 2dd 2ff
=365	=365	=365	=365	=365	=365
2Vf	F:maj/4	534.905	.	voice	2F 2a 2cc
2I	B-:maj	535.596	.	voice	2B- 2dd 2ff
=366	=366	=366	=366	=366	=366
2IVc	E-:maj/5	536.287	.	voice	2e- 2g 2B-
2I	B-:maj	536.979	.	voice	2B- 2dd 2ff
=367	=367	=367	=367	=367	=367
2Vf	F:maj/4	537.67	.	voice	2F 2a 2cc
2I	B-:maj	538.362	.	voice	2B- 2dd 2ff
=368	=368	=368	=368	=368	=368
2IVc	E-:maj/5	539.053	newline	voice	2e- 2g 2B-
2I	B-:maj	539.737	.	voice	2B- 2dd 2ff
=369	=369	=369	=369	=369	=369
2Vf	F:maj/4	540.42	.	voice	2F 2a 2cc
2I	B-:maj	541.103	.	voice	2B- 2dd 2ff
=370	=370	=370	=370	=370	=370
2IVc	E-:maj/5	541.787	.	voice	2e- 2g 2B-
2I	B-:maj	542.47	.	voice	2B- 2dd 2ff
=371	=371	=371	=371	=371	=371
2Vf	F:maj/4	543.153	.	voice	2F 2a 2cc
2I	B-:maj	543.837	.	voice	2B- 2dd 2ff
=372	=372	=372	=372	=372	=372
2IV	E-:maj	544.52	newline	voice	2E- 2g 2b-
2Ib	B-:maj/3	545.201	.	voice	2b- 2D 2ff
=373	=373	=373	=373	=373	=373
2Vc	F:maj/5	545.881	.	voice	2f 2a 2C
2I	B-:maj	546.562	.	voice	2B- 2dd 2ff
=374	=374	=374	=374	=374	=374
2IV	E-:maj	547.242	.	voice	2E- 2g 2b-
2Ic	B-:maj/5	547.922	.	voice	2b- 2dd 2F
=375	=375	=375	=375	=375	=375
2IIf	C:maj/4	548.603	.	voice	2C 2e 2g
2I	B-:maj	549.283	.	voice	2B- 2dd 2ff
=376	=376	=376	=376	=376	=376
1I	B-:maj	549.964	.	voice	1B- 1dd 1ff
1r;	N	561.702	.	r	1r;
1r;	N	570.802	.	r	1r;
*-	*-	*-	*-	*-	*-
!!!OTL: Paradise By The Dashboard Light
!!!COC: Meat Loaf
!!!BillboardChartDate: 1978/09/30
!!!BillboardPeak: 39
!!!BillboardWeeksOnChart: 10
!!!SampleTargetRank: 43
!!!SampleActualRank: 43
!!!SampleID#: 0071
!!!RDF**harmony: **recip + pitch class of root + harmonic quality
!!!RDF**harte: Chris Harte's syntax, used by MIREX
!!!RDF**phrase: newline = linebreak in original McGill transcription
!!!RDF**timestamp: McGill audio timestamp in seconds
!!!RDF**leadinstrument: original McGill primary instrumentation annotation
!!!RDT: 2017/01/12/
!!!ENC: Nathaniel Condit-Schultz
!!!EST: Awating manual error checking and editing.
